public/img/experience.svg

<svg width="36" height="40" viewBox="0 0 36 40" fill="none" xmlns="http://www.w3.org/2000/svg">
<path d="M10.5 0.625V5H25.5V0.625C25.5 0.3125 25.7344 0 26.125 0C26.4375 0 26.75 0.3125 26.75 0.625V5H30.5C33.2344 5 35.5 7.26562 35.5 10V13.75V15V35C35.5 37.8125 33.2344 40 30.5 40H5.5C2.6875 40 0.5 37.8125 0.5 35V15V13.75V10C0.5 7.26562 2.6875 5 5.5 5H9.25V0.625C9.25 0.3125 9.48438 0 9.875 0C10.1875 0 10.5 0.3125 10.5 0.625ZM1.75 15V35C1.75 37.1094 3.39062 38.75 5.5 38.75H30.5C32.5312 38.75 34.25 37.1094 34.25 35V15H1.75ZM9.25 6.25H5.5C3.39062 6.25 1.75 7.96875 1.75 10V13.75H34.25V10C34.25 7.96875 32.5312 6.25 30.5 6.25H26.75V9.375C26.75 9.76562 26.4375 10 26.125 10C25.7344 10 25.5 9.76562 25.5 9.375V6.25H10.5V9.375C10.5 9.76562 10.1875 10 9.875 10C9.48438 10 9.25 9.76562 9.25 9.375V6.25ZM19.0938 19.6094L20.9688 23.4375L25.1094 23.9844C26.125 24.1406 26.5938 25.3906 25.8125 26.1719L22.7656 29.0625L23.5469 33.2812C23.7031 34.2969 22.6094 35.0781 21.6719 34.6094L18 32.5781L14.25 34.6094C13.3125 35.0781 12.2188 34.2969 12.4531 33.2812L13.1562 29.1406L10.1094 26.1719C9.32812 25.4688 9.79688 24.2188 10.8125 24.0625L14.9531 23.4375L16.8281 19.6094C17.2969 18.75 18.625 18.75 19.0938 19.6094ZM18 20.2344L15.9688 24.2969L15.8125 24.5312L15.5 24.6094L10.9688 25.2344L14.25 28.4375L14.4844 28.6719L14.4062 28.9844L13.625 33.4375L17.6875 31.3281L18 31.1719L18.2344 31.3281L22.2969 33.4375L21.5156 28.9844L21.4375 28.6719L21.6719 28.4375L24.9531 25.3125L20.4219 24.6094H20.1094L19.9531 24.2969L18 20.2344Z" fill="#1A75BB"/>
</svg>

<svg xmlns="http://www.w3.org/2000/svg" width="36" height="40" fill="none"><path fill="#1A75BB" d="M10.5.625V5h15V.625c0-.312.234-.625.625-.625.313 0 .625.313.625.625V5h3.75c2.734 0 5 2.266 5 5v25c0 2.813-2.266 5-5 5h-25c-2.812 0-5-2.187-5-5V10c0-2.734 2.188-5 5-5h3.75V.625c0-.312.234-.625.625-.625.313 0 .625.313.625.625M1.75 15v20c0 2.11 1.64 3.75 3.75 3.75h25A3.75 3.75 0 0 0 34.25 35V15zm7.5-8.75H5.5A3.75 3.75 0 0 0 1.75 10v3.75h32.5V10c0-2.031-1.719-3.75-3.75-3.75h-3.75v3.125c0 .39-.312.625-.625.625-.39 0-.625-.234-.625-.625V6.25h-15v3.125c0 .39-.312.625-.625.625-.39 0-.625-.234-.625-.625zm9.844 13.36 1.875 3.828 4.14.546a1.282 1.282 0 0 1 .703 2.188l-3.046 2.89.78 4.22c.157 1.015-.937 1.796-1.874 1.327L18 32.58l-3.75 2.03c-.937.47-2.031-.312-1.797-1.328l.703-4.14-3.047-2.97c-.78-.702-.312-1.952.704-2.108l4.14-.625 1.875-3.829c.469-.859 1.797-.859 2.266 0M18 20.233l-2.031 4.063-.156.234-.313.078-4.531.625 3.281 3.203.234.235-.078.312-.781 4.453 4.063-2.109.312-.156.234.156 4.063 2.11-.781-4.454-.078-.312.234-.235 3.281-3.125-4.531-.703h-.313l-.156-.312z"/></svg>
